X: 135020
T: The PULLET
Q: "Irish Reel."
R: Reel.
%R: reel
B: James Kerr "Merry Melodies" v.1 p.35 s.0 #20
Z: 2017 John Chambers <jc:trillian.mit.edu>
M: C
L: 1/8
K: Bm	% and D
|: (fe) |\
d2B2 B2(dB) | AFAB ABde |\
f2B2 B2(dB) | ABde fefa |\
b2B2 B2(dB) | A2(AB) ABde |\
f2B2 B2(dB) | ABde f2 :|
|: (fe) |\
defg abaf | defg a2(af) |\
defg abaf | edef g2(fe) |\
defg abaf | defg a2(gf) |\
gfga bagf | edef g2 :|

% %newpage
%%sep 1 1 500
%%sep 1 1 500
%%center IRISH JIGS FOR QUADRILLES AND COUNTRY DANCES

%%sep 1 1 500
%%sep 1 1 500

